icon-themes/breeze_svg/cmd/32/redo.svg

<svg viewBox="0 0 32 32" xmlns="http://www.w3.org/2000/svg"><path d="m21 3.75-.707031.7070312 3.792969 3.7929688h-7.085938-1a10 10 0 0 0 -10 10 10 10 0 0 0 10 10h1v-1h-1a9 9 0 0 1 -9-9 9 9 0 0 1 9-9h1 7.085938l-3.792969 3.792969.707031.707031 4-4 1-1-1-1z" fill="#4d4d4d"/></svg>

<svg xmlns="http://www.w3.org/2000/svg" viewBox="0 0 32 32">
 <path 
     style="fill:#4d4d4d" 
     d="M 21 3.75 L 20.292969 4.4570312 L 24.085938 8.25 L 17 8.25 L 16 8.25 A 10 10 0 0 0 6 18.25 A 10 10 0 0 0 16 28.25 L 17 28.25 L 17 27.25 L 16 27.25 A 9 9 0 0 1 7 18.25 A 9 9 0 0 1 16 9.25 L 17 9.25 L 24.085938 9.25 L 20.292969 13.042969 L 21 13.75 L 25 9.75 L 26 8.75 L 25 7.75 L 21 3.75 z "
     />
</svg>
